X: 106
T: Money Musk, The
C: R-49
C: Scottish
M: C|
Z: Transcribed to abc by Mary Lou Knack
R: reel
K: A
f| "A"eAcA eA"D"df| "A"eAcA "E7"(3BcB df| "A"eAcA cdea| "D"fd"E7"Be "A"cAA :|
|:\
e| "A"aeca eace| aedb "E7"caBg| "A"aeca eace| "D"fd"E7"Be "A"cAA :|
%%text 9/1/98
